src/assets/filled/Receipt21.svg

<?xml version="1.0" encoding="UTF-8"?>
<svg width="24" height="24" viewBox="0 0 24 24" xmlns="http://www.w3.org/2000/svg">
 <path d="m15.78 2h-7.56c-3.78 0-4.72 1.01-4.72 5.04v11.26c0 2.66 1.46 3.29 3.23 1.39l0.01-0.01c0.82-0.87 2.07-0.8 2.78 0.15l1.01 1.35c0.81 1.07 2.12 1.07 2.93 0l1.01-1.35c0.72-0.96 1.97-1.03 2.79-0.15 1.78 1.9 3.23 1.27 3.23-1.39v-11.25c0.01-4.03-0.93-5.04-4.71-5.04zm-8 10c-0.55 0-1-0.45-1-1s0.45-1 1-1 1 0.45 1 1-0.45 1-1 1zm0-4c-0.55 0-1-0.45-1-1s0.45-1 1-1 1 0.45 1 1-0.45 1-1 1zm8.45 3.75h-5.5c-0.41 0-0.75-0.34-0.75-0.75s0.34-0.75 0.75-0.75h5.5c0.41 0 0.75 0.34 0.75 0.75s-0.34 0.75-0.75 0.75zm0-4h-5.5c-0.41 0-0.75-0.34-0.75-0.75s0.34-0.75 0.75-0.75h5.5c0.41 0 0.75 0.34 0.75 0.75s-0.34 0.75-0.75 0.75z"/>
</svg>

<svg width="24" height="24" viewBox="0 0 24 24"  xmlns="http://www.w3.org/2000/svg">
<path d="M15.78 2H8.22C4.44 2 3.5 3.01 3.5 7.04V18.3C3.5 20.96 4.96 21.59 6.73 19.69L6.74 19.68C7.56 18.81 8.81 18.88 9.52 19.83L10.53 21.18C11.34 22.25 12.65 22.25 13.46 21.18L14.47 19.83C15.19 18.87 16.44 18.8 17.26 19.68C19.04 21.58 20.49 20.95 20.49 18.29V7.04C20.5 3.01 19.56 2 15.78 2ZM7.78 12C7.23 12 6.78 11.55 6.78 11C6.78 10.45 7.23 10 7.78 10C8.33 10 8.78 10.45 8.78 11C8.78 11.55 8.33 12 7.78 12ZM7.78 8C7.23 8 6.78 7.55 6.78 7C6.78 6.45 7.23 6 7.78 6C8.33 6 8.78 6.45 8.78 7C8.78 7.55 8.33 8 7.78 8ZM16.23 11.75H10.73C10.32 11.75 9.98 11.41 9.98 11C9.98 10.59 10.32 10.25 10.73 10.25H16.23C16.64 10.25 16.98 10.59 16.98 11C16.98 11.41 16.64 11.75 16.23 11.75ZM16.23 7.75H10.73C10.32 7.75 9.98 7.41 9.98 7C9.98 6.59 10.32 6.25 10.73 6.25H16.23C16.64 6.25 16.98 6.59 16.98 7C16.98 7.41 16.64 7.75 16.23 7.75Z" />
</svg>
